X:1
T:Come Boldly to the Throne of Grace
T:Come Boldly to the Throne of Grace
T:John Robson Sweney (1837-1899)
T:Frances Jane (Fanny) Crosby (1820-1915)
T:Public Domain Courtesy of the Cyber Hymnal™
T:Public Domain Courtesy of the Cyber Hymnal™
C:John Robson Sweney (1837-1899)
Z:Public Domain
Z:Courtesy of the Cyber Hymnal™
%%score 1 ( 2 3 )
L:1/8
Q:1/4=105
M:3/4
K:Ab
V:1 treble 
V:2 bass 
V:3 bass 
V:1
 [CE]2 | [Ec][Ec] [Ec]2 [EA]2 | [EA][EG] [EG]2 [EA]2 | [EB][EB] [EA]2 [EB]2 | [Ec]4 [CE]2 | %5
w: 1.~Come,|ye who from your|hearts be- lieve That|Je- sus an- swers|prayer, Come|
w: 2.~If|in the “fount- ain|filled with blood” Our|sins are washed a-|way Come|
w: 3.~From|ev- ery pre- cious,|gold- en hour We|spend in fer- vent|prayer, We|
 [Ec][Ec] [Ec]2 [CE]2 | [DF][FA] [FA]2 [FB]2 | [Ec][EA] [EA]2 [EG]2 | [EA]4 [EA]2 | %9
w: bold- ly to a|throne of grace And|claim His prom- ise|there, That,|
w: bold- ly to a|throne of grace, Re-|joic- ing that we|may Come|
w: ga- ther strength from|day to day For|each re- turn- ing|care; And,|
 [EG][EA] [EB]2 [EB]2 | [EA][EB] [Ec]2 [Ec]2 | [Ed][Ed] [Ed]2 [Ec]2 | [EB]4 E2 | %13
w: if His love in|us a- bide And|we in Him are|one, What-|
w: bold- ly to a|throne of grace, And|bless the Lord our|king— Who|
w: while with true, be-|liev- ing hearts We|bow be- fore His|throne, There’s|
 [Ec][Ec] [Ec]2 [CE]2 | [DF][FA] [FA]2 [FB]2 | [Ec][EA] [EA]2 [EG]2 | [EA]4 ||"^Refrain" [Ec]2 | %18
w: ev- er in His|name we ask It|sure- ly will be|done.||
w: fills our grate- ful|hearts with praise, And|tunes our tongues to|sing.|Come|
w: not a prom- ise|He has made But|we may call our|own.||
 [Ge][GB] [GB]2 [Ed]2 | [Ec][EA] [EA]2 [Ec]2 | [Ge][Gc] [GB]2 [Ed]2 | [Ec]4 [CE]2 | %22
w: ||||
w: lov- ing- ly and|trust- ing- ly, Take|Je- sus at His|word, For|
w: ||||
 [Ec][Ec] [Ec]2 [CE]2 | [DF][FA] [FA]2 [FB]2 | [Ec][EA] [EA]2 [EG]2 | [EA]4 |] %26
w: ||||
w: He has said, “the|prayer of faith Was|nev- er yet un-|heard.”|
w: ||||
V:2
 [A,,A,]2 | [A,,A,][A,,A,] [A,,A,]2 [A,,C]2 | [E,C][E,C] [E,B,]2 [E,C]2 | %3
 [E,D][E,D] [E,D]2 [E,G,]2 | A,4 [A,,A,]2 | [A,,A,][A,,A,] [A,,A,]2 [A,,A,]2 | %6
 [D,A,][D,D] [D,D]2 [D,A,]2 | [E,A,][E,C] [E,C]2 [E,D]2 | [A,,C]4 [A,,A,C]2 | %9
 [E,B,][E,C] [E,D]2 [E,G,]2 | [C,A,][E,G,] A,2 A,2 | [G,B,][G,B,] [G,B,]2 A,2 | [E,G,]4 [E,G,]2 | %13
 [A,,A,][A,,A,] [A,,A,]2 [A,,A,]2 | [D,A,][D,D] [D,D]2 [D,A,]2 | [E,A,][E,C] [E,C]2 [E,D]2 | %16
 [A,,C]4 || A,2 | [E,B,][E,E] [E,E]2 [G,B,]2 | A,[A,C] [A,C]2 A,2 | [E,B,][E,E] [E,E]2 [G,B,]2 | %21
 A,4 [A,,A,]2 | [A,,A,][A,,A,] [A,,A,]2 [A,,A,]2 | [D,A,][D,D] [D,D]2 [D,A,]2 | %24
 [E,A,][E,C] [E,C]2 [E,D]2 | [A,,C]4 |] %26
V:3
 x2 | x6 | x6 | x6 | A,4 x2 | x6 | x6 | x6 | x6 | x6 | x2 A,2 A,2 | x4 A,2 | x6 | x6 | x6 | x6 | %16
 x4 || A,2 | x6 | x6 | x6 | A,4 x2 | x6 | x6 | x6 | x4 |] %26

